X: 1
T: Bourree Marijean
M: 3/4
L: 1/8
R: waltz
K: Gmin
&quot;D&quot;d2^c2A2|&quot;C&quot;c2=B2G2|&quot;Bb&quot;B3AG2|&quot;D/A&quot;^F2D2FA|
d2^c2A2|&quot;C&quot;c2=B2G2|&quot;Bb&quot;B3A&quot;D/F#&quot;^F2|&quot;Gm&quot;G6:|
|:&quot;Gm&quot;B3AG2|&quot;D&quot;^F2D=EFE|^FGFGAB|&quot;D/F#&quot;A2&quot;Gm&quot;G4|
B3AG2|&quot;D&quot;^F2D=EFE|^FGFG&quot;D/F#&quot;AF|&quot;Gm&quot;G6:|
